X:1053
T:Martin Wynne's #4
R:reel
Z:id:hn-reel-1053
M:C|
L:1/8
K:G
BGAG EDB,C | DGBA GBAG | EB,~B,2 G,A,B,D | EGAB cedc |
BGAG EDB,C | DGBA GBAG | EB,~B,2 G,A,B,D | EGAc BGGA :|
|: B2dB cedc | BGDG EAAc | BddB dega | bg~g2 ~a3g |
bg~g2 aegf | eBdB GA (3Bcd | eBdB cBAG | (3EFG Ac BGGA :|
P:Variations
|: BGAG EDB,C | DGBA GBAG | EB,DB, G,A,B,D | (3EFG AB c2dc |
BGAG EDB,C | DGBA GBAG | EB,~B,2 G,A,B,D | (3EFG Ac BAGA :|
|: ~B3d c2dc | BGAG EAAc | BddB dega | bgag ea~a2 |
bg~g2 aged | eB~B2 GA (3Bcd | eBdB cBAG | (3EFG Ac BAGA :|

